svg/color/pgon.svg

<svg width="40" height="40" viewBox="0 0 40 40" fill="none" xmlns="http://www.w3.org/2000/svg">
<g clip-path="url(#clip0_820_3814)">
<path d="M20 0C31.0457 0 40 8.9543 40 20C40 31.0457 31.0457 40 20 40C8.95431 40 7.90517e-06 31.0457 0 20C6.58765e-07 8.95431 8.95431 1.97595e-06 20 0Z" fill="#CCD8ED"/>
<path d="M26 6C30.4183 6 34 9.58172 34 14V26C34 30.4183 30.4183 34 26 34H14C9.58172 34 6 30.4183 6 26V14C6 9.58172 9.58172 6 14 6H26Z" fill="#003DA5"/>
<path d="M17.5077 25.2173C16.6889 25.1732 16.0778 24.8363 15.7204 24.2317C15.4807 23.8259 15.4077 23.2921 15.5174 22.7467C15.639 22.1424 16.0516 21.5978 16.685 21.2062C17.049 20.9809 17.3605 20.8411 17.9948 20.6182C18.1543 20.5621 18.2919 20.5105 18.3008 20.5033C18.3135 20.4932 18.3153 20.4575 18.309 20.3414C18.2907 20.0113 18.3458 19.497 18.439 19.1258C18.5959 18.5012 18.8977 17.9974 19.2982 17.6917C19.5858 17.4721 19.9627 17.307 20.3379 17.2362C20.5452 17.1972 20.8922 17.1973 21.0872 17.2366C21.9228 17.4048 22.3917 18.0488 22.207 18.7745C22.1682 18.9275 22.0453 19.1783 21.9412 19.317C21.6747 19.6724 21.2738 19.9885 20.7077 20.2892C20.6365 20.3272 20.4034 20.4416 20.19 20.5439C19.9765 20.646 19.7952 20.7364 19.7868 20.7448C19.7749 20.7566 19.7779 20.7913 19.8009 20.908C19.9071 21.4472 20.0857 21.9029 20.3906 22.4124C20.5118 22.6152 20.6794 22.8709 20.6985 22.8828C20.7261 22.8998 20.8389 22.7176 20.9125 22.5372C21.0034 22.314 21.0555 22.0188 21.0298 21.8722C21.0114 21.7672 20.954 21.6563 20.8808 21.5846C20.8472 21.5515 20.8194 21.5202 20.8193 21.515C20.8191 21.51 21.1033 21.5071 21.4509 21.5089L22.083 21.5122L22.0794 21.5923C22.0745 21.7019 22.0338 21.9355 21.9909 22.1018C21.8701 22.5695 21.6423 22.9694 21.2486 23.4062C21.2022 23.4577 21.1641 23.5082 21.1641 23.5186C21.1641 23.5289 21.2294 23.6005 21.3091 23.6778C21.8067 24.1602 22.6882 24.7165 23.406 25.001C23.4757 25.0288 23.5326 25.057 23.5323 25.0637C23.5321 25.0718 23.1177 25.0771 22.3214 25.0793L21.1109 25.0824L21.042 25.0436C20.9013 24.9646 20.5899 24.7129 20.2908 24.4364C20.2274 24.3779 20.1674 24.33 20.1574 24.33C20.1475 24.33 20.0771 24.3709 20.0012 24.421C19.6125 24.6773 19.148 24.9076 18.7551 25.0386C18.3082 25.1878 17.9394 25.2404 17.5077 25.2173ZM18.527 24.1685C18.7082 24.1362 18.9308 24.0704 19.1355 23.9887C19.3413 23.9066 19.5964 23.7811 19.6056 23.7574C19.6092 23.748 19.562 23.6692 19.5009 23.582C19.2193 23.1808 18.9185 22.6164 18.7163 22.1102C18.6417 21.9236 18.5025 21.5104 18.4759 21.3971C18.4675 21.361 18.4522 21.3282 18.442 21.3242C18.4138 21.3134 18.1826 21.4367 17.9828 21.5692C17.2727 22.0399 16.9322 22.6146 17.0078 23.2151C17.0414 23.482 17.1259 23.6765 17.2796 23.8408C17.5638 24.1444 18.008 24.2611 18.527 24.1685ZM19.7324 19.993C19.9952 19.8391 20.4121 19.4656 20.6452 19.1752C20.9437 18.8035 21.1023 18.4567 21.1024 18.1754C21.1024 18.0146 21.0796 17.9426 21.0052 17.8682C20.9312 17.7943 20.8477 17.7637 20.7201 17.7636C20.3416 17.7636 19.9323 18.2129 19.754 18.8242C19.664 19.1323 19.6422 19.2982 19.6416 19.6746C19.6411 19.9621 19.6458 20.0261 19.6674 20.0261C19.672 20.0261 19.7013 20.0112 19.7324 19.993ZM25.992 25.2101C25.3683 25.1473 24.9573 25.0541 24.4936 24.8705C23.8627 24.6204 23.4687 24.3107 23.136 23.8032C23.0364 23.6513 22.8765 23.3323 22.812 23.156C22.5234 22.3706 22.46 21.3818 22.632 20.3503C22.8061 19.3063 23.2027 18.3001 23.7499 17.5136C24.1048 17.0036 24.633 16.4665 25.1781 16.0609C26.0784 15.3913 27.1146 14.9797 28.2657 14.835C28.6149 14.7911 28.8105 14.7798 29.223 14.78C29.8468 14.7804 30.322 14.8279 30.9495 14.9526C31.3498 15.0323 31.9875 15.2044 31.9998 15.2362C32.006 15.2522 31.602 16.5472 31.5853 16.5646C31.5801 16.57 31.5181 16.5286 31.4476 16.4722C30.8802 16.0198 30.292 15.7444 29.6973 15.6528C29.5074 15.6235 29.1504 15.6232 28.9641 15.6521C28.1304 15.7812 27.3573 16.3139 26.671 17.2322C26.4481 17.5306 26.2024 17.9304 26.0114 18.3058C25.7526 18.8146 25.5746 19.2643 25.3946 19.8658C24.8212 21.7793 24.7922 23.1162 25.3082 23.8399C25.5207 24.1381 25.8314 24.3281 26.2256 24.4007C26.4519 24.4424 27.0013 24.4171 27.056 24.3625C27.0648 24.3539 27.333 23.5147 27.6519 22.4977C28.1761 20.8272 28.2327 20.6388 28.2387 20.5441C28.2466 20.4169 28.223 20.3033 28.1658 20.1938C28.1138 20.0944 27.9765 19.9594 27.8634 19.8966C27.8145 19.8695 27.7744 19.8431 27.7743 19.838C27.7742 19.833 28.6536 19.8288 29.7286 19.8288C30.8036 19.8288 31.6832 19.833 31.6831 19.838C31.6831 19.8431 31.6354 19.8691 31.5772 19.8956C31.2729 20.0348 31.0524 20.2434 30.9212 20.5163C30.8928 20.5753 30.6468 21.3395 30.2773 22.5162L29.6793 24.4206L29.5065 24.5034C28.8027 24.8412 27.9417 25.0844 27.0829 25.1882C26.9251 25.2074 26.1241 25.2234 25.9921 25.2101H25.992ZM8.00049 25.0709C7.99653 25.0646 8.02257 25.0427 8.05821 25.0222C8.27061 24.8999 8.50905 24.6462 8.61009 24.4348C8.63937 24.3736 11.3205 15.8344 11.3797 15.6137C11.3901 15.575 11.3989 15.4934 11.399 15.4325C11.3998 15.2462 11.342 15.112 11.2058 14.9831C11.1686 14.9479 11.1382 14.914 11.1382 14.9076C11.1382 14.8907 15.8201 14.8921 16.0347 14.9092C16.4996 14.946 16.965 15.0696 17.3209 15.2506C17.9286 15.5596 18.2924 16.0285 18.4043 16.6469C18.4355 16.819 18.4415 17.2018 18.4159 17.387C18.3117 18.1423 17.9695 18.9434 17.5035 19.523C16.7487 20.4619 15.5143 21.0623 13.9993 21.2274C13.519 21.2797 12.9139 21.2929 12.4854 21.2603C12.3615 21.2508 12.2576 21.2456 12.2545 21.2488C12.2392 21.2641 11.2726 24.3655 11.2616 24.4348C11.2275 24.6482 11.3374 24.8882 11.5269 25.014C11.5644 25.0388 11.5917 25.0644 11.5879 25.0706C11.5783 25.0861 8.00997 25.0862 8.00037 25.0708L8.00049 25.0709ZM13.3148 20.4644C13.6668 20.402 13.9773 20.2717 14.277 20.0609C14.4225 19.9585 14.7216 19.6598 14.8449 19.4936C15.1536 19.0781 15.3806 18.5878 15.5637 17.9419C15.6804 17.5303 15.73 17.2168 15.7299 16.8936C15.7299 16.6445 15.7074 16.4957 15.6447 16.3288C15.5517 16.0811 15.3624 15.8854 15.1218 15.7882C14.9151 15.7046 14.7387 15.6827 14.3144 15.6876L13.9945 15.6912L13.2508 18.059C12.842 19.3614 12.5096 20.4332 12.5124 20.4409C12.5152 20.4486 12.5666 20.4616 12.6264 20.4697C12.6864 20.4779 12.7436 20.4865 12.7538 20.489C12.8004 20.5004 13.2148 20.4822 13.3148 20.4644Z" fill="white"/>
</g>
<defs>
<clipPath id="clip0_820_3814">
<rect width="40" height="40" fill="white"/>
</clipPath>
</defs>
</svg>

<svg xmlns="http://www.w3.org/2000/svg" width="40" height="40" fill="none" viewBox="0 0 40 40"><g clip-path="url(#pgon_svg-a)"><path fill="#CCD8ED" d="M20 0c11.046 0 20 8.954 20 20s-8.954 20-20 20S0 31.046 0 20 8.954 0 20 0"/><path fill="#003DA5" d="M26 6a8 8 0 0 1 8 8v12a8 8 0 0 1-8 8H14a8 8 0 0 1-8-8V14a8 8 0 0 1 8-8z"/><path fill="#fff" d="M17.508 25.217c-.82-.044-1.43-.38-1.788-.985-.24-.406-.312-.94-.203-1.485.122-.605.535-1.15 1.168-1.54.364-.226.675-.366 1.31-.589a4 4 0 0 0 .306-.115c.013-.01.014-.046.008-.162a4.7 4.7 0 0 1 .13-1.215c.157-.625.459-1.129.86-1.434a2.5 2.5 0 0 1 1.039-.456c.207-.039.554-.039.75 0 .835.169 1.304.813 1.119 1.538a1.9 1.9 0 0 1-.266.543c-.266.355-.667.671-1.233.972-.071.038-.305.153-.518.255a8 8 0 0 0-.403.2c-.012.013-.01.047.014.164.106.54.285.995.59 1.504.12.203.288.459.308.47.027.018.14-.164.213-.345.091-.223.143-.518.118-.665a.56.56 0 0 0-.15-.287.4.4 0 0 1-.06-.07c0-.005.283-.008.63-.006l.633.003-.004.08c-.005.11-.045.344-.088.51-.12.468-.349.867-.742 1.304a.5.5 0 0 0-.085.113c0 .01.065.082.145.159.498.482 1.38 1.038 2.097 1.323.07.028.127.056.126.063 0 .008-.414.013-1.21.015l-1.211.003-.069-.038c-.14-.08-.452-.331-.751-.608a.7.7 0 0 0-.134-.106 1 1 0 0 0-.156.091 5.7 5.7 0 0 1-1.246.618 3.2 3.2 0 0 1-1.247.178m1.019-1.048c.181-.033.404-.099.608-.18.206-.082.461-.208.47-.232a.8.8 0 0 0-.104-.175 7.8 7.8 0 0 1-.785-1.472 9 9 0 0 1-.24-.713c-.008-.036-.024-.069-.034-.073-.028-.01-.26.113-.46.245-.71.47-1.05 1.046-.974 1.646.033.267.118.462.272.626.284.303.728.42 1.247.328m1.205-4.176c.263-.154.68-.527.913-.818.299-.372.457-.718.457-1 0-.16-.022-.232-.097-.307-.074-.074-.157-.104-.285-.104-.378 0-.788.449-.966 1.06-.09.308-.112.474-.112.85 0 .288.004.352.025.352a.4.4 0 0 0 .065-.033m6.26 5.217c-.624-.063-1.035-.156-1.498-.34-.631-.25-1.025-.56-1.358-1.067a4 4 0 0 1-.324-.647c-.289-.785-.352-1.774-.18-2.806.174-1.044.57-2.05 1.118-2.836a6.7 6.7 0 0 1 1.428-1.453 6.45 6.45 0 0 1 3.088-1.226c.349-.044.545-.055.957-.055a8 8 0 0 1 1.727.173c.4.08 1.038.251 1.05.283.006.016-.398 1.311-.415 1.329a.5.5 0 0 1-.137-.093c-.568-.452-1.156-.728-1.75-.82a3 3 0 0 0-.734 0c-.834.13-1.607.662-2.293 1.58a8 8 0 0 0-.66 1.074 9 9 0 0 0-.616 1.56c-.574 1.913-.603 3.25-.087 3.974.213.298.523.488.918.56.226.042.775.017.83-.037.009-.01.277-.848.596-1.865.524-1.67.58-1.86.587-1.954a.65.65 0 0 0-.073-.35.9.9 0 0 0-.303-.297.4.4 0 0 1-.089-.059c0-.005.88-.01 1.955-.01s1.954.005 1.954.01a.5.5 0 0 1-.106.058q-.458.21-.656.62c-.028.06-.274.824-.644 2l-.598 1.905-.172.082a8 8 0 0 1-2.424.685c-.158.02-.959.035-1.09.022M8 25.07c-.003-.005.023-.027.058-.048a1.55 1.55 0 0 0 .552-.587c.03-.061 2.71-8.6 2.77-8.821a1 1 0 0 0 .019-.182.56.56 0 0 0-.193-.449.4.4 0 0 1-.068-.075c0-.017 4.682-.016 4.897.001.465.037.93.16 1.286.342.608.309.971.778 1.083 1.396.032.172.038.555.012.74a4.55 4.55 0 0 1-.913 2.136c-.754.939-1.989 1.54-3.504 1.704a9 9 0 0 1-1.514.033 2 2 0 0 0-.23-.011c-.016.015-.982 3.117-.993 3.186a.61.61 0 0 0 .265.579c.037.025.065.05.06.057-.009.015-3.577.015-3.587 0m5.315-4.606a2.34 2.34 0 0 0 .962-.403 3.5 3.5 0 0 0 .568-.567c.309-.416.536-.906.719-1.552.116-.412.166-.725.166-1.048 0-.25-.023-.398-.085-.565a.93.93 0 0 0-.523-.54c-.207-.084-.383-.106-.808-.101l-.32.003-.743 2.368a177 177 0 0 0-.739 2.382c.003.008.055.02.114.029l.128.019c.046.011.46-.007.56-.025"/></g><defs><clipPath id="pgon_svg-a"><path fill="#fff" d="M0 0h40v40H0z"/></clipPath></defs></svg>
